svg/u1f622.svg

<svg viewBox="0 0 128 128" xmlns="http://www.w3.org/2000/svg">
  <g id="gold">
    <radialGradient id="face_1_" cx="63.6" cy="1992.9" gradientTransform="matrix(1 0 0 1 0 -1930)" gradientUnits="userSpaceOnUse" r="56.9597">
      <stop offset="0.5" stop-color="#FDE030"/>
      <stop offset="0.92" stop-color="#F7C02B"/>
      <stop offset="1" stop-color="#F4A223"/>
    </radialGradient>
    <path id="face" d="M63.6,118.8c-27.9,0-58-17.5-58-55.9S35.7,7,63.6,7c15.5,0,29.8,5.1,40.4,14.4 c11.5,10.2,17.6,24.6,17.6,41.5s-6.1,31.2-17.6,41.4C93.4,113.6,79,118.8,63.6,118.8z" fill="url(#face_1_)"/>
    <path d="M111.49,29.67c5.33,8.6,8.11,18.84,8.11,30.23c0,16.9-6.1,31.2-17.6,41.4 c-10.6,9.3-25,14.5-40.4,14.5c-18.06,0-37-7.35-48.18-22.94c10.76,17.66,31,25.94,50.18,25.94c15.4,0,29.8-5.2,40.4-14.5 c11.5-10.2,17.6-24.5,17.6-41.4C121.6,50.16,118.13,38.84,111.49,29.67z" fill="#EB8F00"/>
  </g>
  <g id="facial_expressions">
    <g id="crying-face">
      <path id="mouth" d="M64,79.4c10.8,0,18.4,5.6,20.7,9.1c0.88,1.11,1.07,2.61,0.5,3.9 c-0.44,0.81-1.28,1.31-2.2,1.3c-0.34-0.02-0.68-0.09-1-0.2c-5.85-1.67-11.91-2.51-18-2.5c-6.06-0.04-12.1,0.84-17.9,2.6 c-0.32,0.11-0.66,0.18-1,0.2c-0.92,0.03-1.78-0.47-2.2-1.3c-0.58-1.29-0.38-2.8,0.5-3.9C45.6,85,53.3,79.4,64,79.4z" fill="#422B0D"/>
    </g>
    <radialGradient id="SVGID_1_" cx="37.82" cy="-408.8851" gradientTransform="matrix(1 0 0 -1.54 0 -560.29)" gradientUnits="userSpaceOnUse" r="26.42">
      <stop offset="0.46" stop-color="#29B6F6"/>
      <stop offset="1" stop-color="#1E88E5"/>
    </radialGradient>
    <path d="M37,104.5c-6.5,0-11.5-6.3-11.5-11.7c0-3.8,1.7-8.2,4.1-14.3c0.3-0.9,0.7-1.8,1.1-2.8 c1.4-3.62,3-7.16,4.8-10.6c0.36-0.69,1.18-0.99,1.9-0.7c0.3,0.15,0.55,0.4,0.7,0.7c1.5,3.1,3.2,6.9,4.9,10.8 c4.2,9.4,5.4,13.2,5.4,17C48.5,98.2,43.4,104.5,37,104.5z" fill="url(#SVGID_1_)"/>
    <path d="M44,97.29c-1.47,2.27-4.8,1.84-4.8-1.93c0-2.41,0.49-14.79,2.56-13.06 C45.16,85.12,46.12,94.08,44,97.29z" fill="#81D4FA"/>
    <path d="M30,46.7c-1.25,1.85-4.22,0.66-3.35-1.58c2.05-4.87,5.88-8.77,10.72-10.89 c1.77-0.84,3.68-1.37,5.63-1.58c0.99-0.2,1.96,0.44,2.16,1.43c0.2,0.99-0.44,1.96-1.44,2.16h-0.13C38.01,38.09,33.22,41.78,30,46.7 z" fill="#422B0D"/>
    <path d="M97.29,46.7c1.25,1.85,4.22,0.66,3.35-1.58c-2.06-4.88-5.91-8.78-10.77-10.89 c-1.77-0.84-3.66-1.37-5.61-1.58c-0.99-0.2-1.96,0.44-2.15,1.43c-0.2,0.99,0.44,1.96,1.43,2.16h0.13 C89.26,38.08,94.07,41.77,97.29,46.7z" fill="#422B0D"/>
    <path d="M44.67,46.94L44.67,46.94c-4.19,0-8,3.54-8,9.42s3.81,9.41,8,9.41l0,0c4.19,0,8-3.54,8-9.41 S48.86,46.94,44.67,46.94z" fill="#422B0D"/>
    <g id="peepers">
      <path d="M44.28,50.87L44.28,50.87c-1.42-0.68-3.13-0.08-3.82,1.34c-0.53,1.11-0.29,2.44,0.6,3.3l0,0 c1.42,0.68,3.13,0.08,3.82-1.34C45.41,53.06,45.17,51.73,44.28,50.87z" fill="#896024"/>
    </g>
    <path d="M83,46.94L83,46.94c-4.19,0-8,3.54-8,9.42s3.81,9.41,8,9.41l0,0c4.19,0,8-3.54,8-9.41 S87.21,46.94,83,46.94z" fill="#422B0D"/>
    <g id="peepers-2">
      <path d="M82.63,50.87L82.63,50.87c-1.42-0.68-3.13-0.08-3.82,1.34c-0.53,1.11-0.29,2.44,0.6,3.3l0,0 c1.42,0.68,3.13,0.08,3.82-1.34C83.76,53.06,83.52,51.73,82.63,50.87z" fill="#896024"/>
    </g>
  </g>
</svg>

<svg viewBox="0 0 128 128" xmlns="http://www.w3.org/2000/svg">
  <defs>
    <radialGradient id="face_1_" cx="63.6" cy="62.9" gradientUnits="userSpaceOnUse" r="56.9597">
      <stop offset="0.5" stop-color="#FDE030"/>
      <stop offset="0.92" stop-color="#F7C02B"/>
      <stop offset="1" stop-color="#F4A223"/>
    </radialGradient>
    <radialGradient id="SVGID_1_" cx="37.82" cy="-45.060425" gradientTransform="matrix(1 0 0 -1.54 0 0)" gradientUnits="userSpaceOnUse" r="26.42">
      <stop offset="0.46" stop-color="#29B6F6"/>
      <stop offset="1" stop-color="#1E88E5"/>
    </radialGradient>
  </defs>
  <path id="face" d="M63.6,118.8 C35.7,118.8 5.6,101.3 5.6,62.9 C5.6,24.5 35.7,7 63.6,7 C79.1,7 93.4,12.1 104,21.4 C115.5,31.6 121.6,46 121.6,62.9 C121.6,79.8 115.5,94.1 104,104.3 C93.4,113.6 79,118.8 63.6,118.8 Z" fill="url(#face_1_)"/>
  <path d="M111.49,29.67 C116.82,38.27 119.6,48.51 119.6,59.9 C119.6,76.8 113.5,91.1 102,101.3 C91.4,110.6 77,115.8 61.6,115.8 C43.54,115.8 24.6,108.45 13.42,92.86 C24.18,110.52 44.42,118.8 63.6,118.8 C79,118.8 93.4,113.6 104,104.3 C115.5,94.1 121.6,79.8 121.6,62.9 C121.6,50.16 118.13,38.84 111.49,29.67 Z" fill="#EB8F00"/>
  <path id="mouth" d="M64,79.4 C74.8,79.4 82.4,85 84.7,88.5 C85.58,89.61 85.77,91.11 85.2,92.4 C84.76,93.21 83.92,93.71 83,93.7 C82.66,93.68 82.32,93.61 82,93.5 C76.15,91.83 70.09,90.99 64,91 C57.94,90.96 51.9,91.84 46.1,93.6 C45.78,93.71 45.44,93.78 45.1,93.8 C44.18,93.83 43.32,93.33 42.9,92.5 C42.32,91.21 42.52,89.7 43.4,88.6 C45.6,85 53.3,79.4 64,79.4 Z" fill="#422B0D"/>
  <path d="M37,104.5 C30.5,104.5 25.5,98.2 25.5,92.8 C25.5,89 27.2,84.6 29.6,78.5 C29.9,77.6 30.3,76.7 30.7,75.7 C32.1,72.08 33.7,68.54 35.5,65.1 C35.86,64.41 36.68,64.11 37.4,64.4 C37.7,64.55 37.95,64.8 38.1,65.1 C39.6,68.2 41.3,72 43,75.9 C47.2,85.3 48.4,89.1 48.4,92.9 C48.5,98.2 43.4,104.5 37,104.5 Z" fill="url(#SVGID_1_)"/>
  <path d="M44,97.29 C42.53,99.56 39.2,99.13 39.2,95.36 C39.2,92.95 39.69,80.57 41.76,82.3 C45.16,85.12 46.12,94.08 44,97.29 Z" fill="#81D4FA"/>
  <path d="M30,46.7 C28.75,48.55 25.78,47.36 26.65,45.12 C28.7,40.25 32.53,36.35 37.37,34.23 C39.14,33.39 41.05,32.86 43,32.65 C43.99,32.45 44.96,33.09 45.16,34.08 C45.36,35.07 44.72,36.04 43.72,36.24 L43.59,36.24 C38.01,38.09 33.22,41.78 30,46.7 Z" fill="#422B0D"/>
  <path d="M97.29,46.7 C98.54,48.55 101.51,47.36 100.64,45.12 C98.58,40.24 94.73,36.34 89.87,34.23 C88.1,33.39 86.21,32.86 84.26,32.65 C83.27,32.45 82.3,33.09 82.11,34.08 C81.91,35.07 82.55,36.04 83.54,36.24 L83.67,36.24 C89.26,38.08 94.07,41.77 97.29,46.7 Z" fill="#422B0D"/>
  <path d="M44.67,46.94 L44.67,46.94 C40.48,46.94 36.67,50.48 36.67,56.36 C36.67,62.24 40.48,65.77 44.67,65.77 L44.67,65.77 C48.86,65.77 52.67,62.23 52.67,56.36 C52.67,50.49 48.86,46.94 44.67,46.94 Z" fill="#422B0D"/>
  <path d="M44.28,50.87 L44.28,50.87 C42.86,50.19 41.15,50.79 40.46,52.21 C39.93,53.32 40.17,54.65 41.06,55.51 L41.06,55.51 C42.48,56.19 44.19,55.59 44.88,54.17 C45.41,53.06 45.17,51.73 44.28,50.87 Z" fill="#896024"/>
  <path d="M83,46.94 L83,46.94 C78.81,46.94 75,50.48 75,56.36 C75,62.24 78.81,65.77 83,65.77 L83,65.77 C87.19,65.77 91,62.23 91,56.36 C91,50.49 87.21,46.94 83,46.94 Z" fill="#422B0D"/>
  <path d="M82.63,50.87 L82.63,50.87 C81.21,50.19 79.5,50.79 78.81,52.21 C78.28,53.32 78.52,54.65 79.41,55.51 L79.41,55.51 C80.83,56.19 82.54,55.59 83.23,54.17 C83.76,53.06 83.52,51.73 82.63,50.87 Z" fill="#896024"/>
</svg>
